X: 28011
T: Moving Cloud, The
R: reel
M: 4/4
K: Gmajor
|:DGBG DGcG|DGBG AGFG|cA A2 B/c/d gb|aged BAGE|
DGBG DGcG|DGBG AGFG|cBAc BAGB|ADEF G3z:|
|:~d2 Bd AdGd|~d2 Bd AdGd|~e2 ce BeAe|~e2 ce BeAe
~d2 Bd AdGd|~d2 Bd AdGd|cBAc BAGB|ADEF G3z:|
|:Bd d/d/d ed d/d/d|Bd d/d/d edcB|ce^de fe^de|fe^df e^d=dc
Bd d/d/d ed d/d/d|Bd d/d/d edcB|cBAc BAGB|Az D/E/F G3z:|

